!!!!SEGMENT: Wil3004-Jayme_bien_mon_amy_I.krn
!!!id: Wil3004
!!!AGN: Chanson
!!!SCT: Thomas (1986)
!!!voices: 4
!!!COM: Adrian Willaert
!!!OTL: J'ayme bien mon amy (I)
**kern	**kern	**kern	**kern
*part4	*part3	*part2	*part1
*staff4	*staff3	*staff2	*staff1
*I"Bassus	*I"Tenor	*I"Altus	*I"Superius
*I'B	*I'T	*I'A	*I'S
*clefF4	*clefG2	*clefGv2	*clefG2
*k[b-]	*k[b-]	*k[b-]	*k[b-]
*F:	*F:	*F:	*F:
*M2/1	*M2/1	*M2/1	*M2/1
*met(C|)	*met(C|)	*met(C|)	*met(C|)
=1	=1	=1	=1
!	!LO:TX:a:t=Canon&colon; tenor/bassus at the fifth	!	!LO:TX:a:t=Canon&colon; superius/altus at the fifth
0r	0r	0r	1b-y
.	.	.	1cc
=2	=2	=2	=2
0r	1r	0r	1a
.	1b-y	.	1b-y
=3	=3	=3	=3
0r	1cc	1e	1g
.	1a	1f	[1f
=4	=4	=4	=4
1r	1b-y	1d	1f]
1E	1g	1e	1b-y
=5	=5	=5	=5
1F	0f	1c	1a
1D	.	[1B-y	1r
=6	=6	=6	=6
1E	0r	1B-]	2r
.	.	.	2g
1C	.	1e-i	2cc
.	.	.	2cc
=7	=7	=7	=7
0BB-y	1r	1d	1dd
.	1f	1r	2r
.	.	.	2ff
=8	=8	=8	=8
0r	2cc	2r	4ee
.	.	.	4dd
.	2cc	2c	4cc
.	.	.	4b-y
.	2dd	2f	2a
.	2ff	2f	[2dd
=9	=9	=9	=9
1r	2ee	1g	4dd]
.	.	.	4cc
.	4dd	.	1cc
.	4cc	.	.
1BB-y	1dd	2r	.
.	.	2b-y	2b-y
=10	=10	=10	=10
2F	1cc	4a	1cc
.	.	4g	.
2F	.	4f	.
.	.	4e	.
2G	1r	2d	2r
2B-y	.	[2g	2g
=11	=11	=11	=11
2A	0r	4g]	1cc
.	.	4f	.
4G	.	1f	.
4F	.	.	.
1G	.	.	1b-y
.	.	2e	.
=12	=12	=12	=12
1F	0r	1f	2a
.	.	.	2.cc
1r	.	2r	.
.	.	.	4dd
.	.	2c	[2ee
=13	=13	=13	=13
0r	0r	1f	4ee]
.	.	.	4dd
.	.	.	1dd
.	.	1e	.
.	.	.	2cc
=14	=14	=14	=14
0r	1dd	2d	2.ff
.	.	2.f	.
.	.	.	4ee
.	1ff	.	2dd
.	.	4g	.
.	.	[2a	[2cc
=15	=15	=15	=15
0r	1ee	4a]	4cc]
.	.	4g	4b-y
.	.	1g	4a
.	.	.	4g
.	1dd	.	1a
.	.	2f	.
=16	=16	=16	=16
1G	1r	2.b-y	0r
.	.	4a	.
1B-y	1dd	2g	.
.	.	[2f	.
=17	=17	=17	=17
1A	2cc	4f]	1r
.	.	4e	.
.	4b-y	4d	.
.	4a	4c	.
1G	1b-y	1d	1dd
=18	=18	=18	=18
1r	1a	0r	2cc
.	.	.	4b-y
.	.	.	4a
1G	1r	.	1b-y
=19	=19	=19	=19
2F	0r	1r	2a
4E	.	.	1dd
4D	.	.	.
1E	.	1g	.
.	.	.	2cc
=20	=20	=20	=20
1D	1dd	2f	2a
.	.	4e	2.b-y
.	.	4d	.
1r	2cc	1e	.
.	.	.	4a
.	4b-y	.	[2a
.	4a	.	.
=21	=21	=21	=21
0r	1b-y	2d	2a]
.	.	1g	2g
.	1a	.	2a
.	.	2f	2cc
=22	=22	=22	=22
1G	2r	2d	2b-y
.	2b-y	2.e	4a
.	.	.	4g
2F	2cc	.	1a
.	.	4d	.
4E	2dd	[2d	.
4D	.	.	.
=23	=23	=23	=23
1E	1g	2d]	1g
.	.	2c#i	.
1D	1a	2d	1r
.	.	2f	.
=24	=24	=24	=24
2r	0r	2e	1r
2E	.	4d	.
.	.	4c	.
2F	.	1d	2r
2G	.	.	2b-y
=25	=25	=25	=25
1C	0r	1c	1cc
1D	.	1r	1a
=26	=26	=26	=26
0r	1b-y	1r	1b-y
.	1cc	2r	1g
.	.	2e	.
=27	=27	=27	=27
0r	1a	1f	1.f
.	1b-y	1d	.
.	.	.	[2b-y
=28	=28	=28	=28
1E	1g	1e	2b-]
.	.	.	4a
.	.	.	4g
1F	1f	1c	1a
=29	=29	=29	=29
1D	1r	1.B-y	2r
.	.	.	2f
1E-i	2r	.	2.g
.	2cc	[2e-i	.
.	.	.	4f
=30	=30	=30	=30
1C	2cc	2e-]	2g
.	2a	4d	2a
.	.	4c	.
1BB-y	2.b-y	1d	2g
.	.	.	[2f
.	4a	.	.
=31	=31	=31	=31
1r	1g	2r	2f]
.	.	2B-y	2e
2r	2.f	2.c	2f
2F	.	.	2a
.	4g	4B-y	.
=32	=32	=32	=32
2F	1a	2c	2a
2D	.	2d	2f
2.E-i	1g	2c	2g
.	.	[2B-y	2g
4D	.	.	.
=33	=33	=33	=33
1C	1cc	2B-]	2.e
.	.	2A	.
.	.	.	4f
2.BB-y	2dd	2B-y	4g
.	.	.	4a
.	[2b-y	2d	[2g
4C	.	.	.
=34	=34	=34	=34
1D	4b-]	2d	4g]
.	4a	.	4f
.	4g	2B-y	1f
.	4f	.	.
1C	1g	2c	.
.	.	2c	2e
=35	=35	=35	=35
00Fl	00fl	00Al	00fl
==	==	==	==
*-	*-	*-	*-
!!!system-decoration: [*]
!!!RDF**kern: i = editorial accidental
!!!RDF**kern: l = terminal long
!!!ENC: Benjamin Ory
!!!END: 2020/12/18
!!!EED: Benjamin Ory
!!!EEV: 2021/04/30
!!!YEC: Copyright 2021 Benjamin Ory, All Rights Reserved
!!!ONB: Translated from MusicXML on 2021/04/30
